!!!COM: Frescobaldi, Girolamo
!!!CDT: 1583///-1643
!!!ONM: No. 19
!!!OTL: No. 19: Canzon Seconda &agrave; 2 Canti
!!!OPR: Canzoni da sonare a una, due, tre et quattro, libro primo
!!!PPP: Venezia
!!!PDT: 1634
!!!URL: http://icking-music-archive.org/ByComposer/Frescobaldi.html
!!!ONB: Andrea Friggi, ed.
**kern	**kern	**kern
!Basso ad Organo	!Basso Secondo	!Basso Primo
*staff3	*staff2	*staff1
*Icello	*Ivioln	*Ivioln
*clefF4	*clefG2	*clefG2
*k[]	*k[]	*k[]
*met(C)	*met(C)	*met(C)
*M4/4	*M4/4	*M4/4
*MM120	*MM120	*MM120
=1-	=1-	=1-
1C	2r	2r
.	2cc\	2ee\
=2	=2	=2
4.G\	4.b\	4.dd\
8G\	8b\	8dd\
4G\	4b\	4dd\
4E\	4cc#\	4ee\
=3	=3	=3
4.D\	4.dd\	4.ff\
8AA/	8cc#\	8ee\
4D\	4dd\	4ff\
4C/	4ee\	4gg\
=4	=4	=4
2FF/	2ff\	2aa\
2F\	4r	4r
.	4a/	4aa\
=5	=5	=5
4G\	4b\	4gg\
4A\	2cc\	8ff\L
.	.	8ee\J
4F\	.	4dd\
4G\	4b\	4dd\
=6	=6	=6
1C	1cc	1ee
=7	=7	=7
*M3/2	*M3/2	*M3/2
1C	2r	1.r
.	2r	.
2c\	2ee\	.
=8	=8	=8
1G	2.dd\	1.r
.	4dd\	.
2E\	2ee\	.
=9	=9	=9
1D	4ff\	1.r
.	4ee\	.
.	4ff\	.
.	4gg\	.
2D\	2ff\	.
=10	=10	=10
1.C	2.gg\	1.r
.	4ff\	.
.	2gg\	.
=11	=11	=11
1F	1aa	2r
.	.	2r
2D\	2ff\	2dd\
=12	=12	=12
1A	2.ee\	2.cc#\
.	4ee\	4cc#\
2D\	2ff\	2dd\
=13	=13	=13
1.C	4gg\	4ee\
.	4ff\	4dd\
.	4gg\	4ee\
.	4aa\	4ff\
.	2gg\	2ee\
=14	=14	=14
1.FF	2.aa\	2.ff\
.	4gg\	4ee\
.	2aa\	2ff\
=15	=15	=15
1C	2r	2r
.	2gg\	1ee
2C/	2aa\	.
=16	=16	=16
1.D	2.ff\	2.a/
.	4ee\	4g/
.	4ff\	4a/
.	4gg\	4b\
=17	=17	=17
1.E	2.ee\	2cc\
.	.	2g/
.	4dd\	.
.	4ee\	2cc\
.	4ff\	.
=18	=18	=18
2F\	1dd	1cc
1G	.	.
.	2dd\	2b\
=19	=19	=19
*met(C)	*met(C)	*met(C)
*M4/4	*M4/4	*M4/4
1C	1ee	2cc\
.	.	2r
=20	=20	=20
*clefC4	*	*
2c\	2r	4cc\
.	.	8cc\L
.	.	8cc\J
4.c\	8r	4.cc\
.	8gg\L	.
.	8ee\	.
8e\	8gg\J	8g/
=21	=21	=21
4d\	8ff\L	8a/L
.	16gg\L	8b/
.	16ff\JJ	.
4c\	8ee\L	8cc/
.	8ff\J	8a/J
4G/	2dd\	8b\L
.	.	8dd\
8G/L	.	8b\
8G/J	.	8dd\J
=22	=22	=22
*clefF4	*	*
4E\	1r	8cc\L
.	.	16dd\L
.	.	16cc\JJ
4E\	.	8b\L
.	.	8cc\J
2F#\	.	4a/
.	.	8dd\L
.	.	8cc\J
=23	=23	=23
2G\	4gg\	2b\
.	8gg\L	.
.	8gg\J	.
4GG/	4.gg\	2r
4BB/	.	.
.	8dd\	.
=24	=24	=24
2C/	8ee\L	8r
.	8ff\J	8cc/L
.	8gg\L	8g/
.	16ff\L	8cc/J
.	16ee\JJ	.
4G\	2dd\	8b\L
.	.	16cc\L
.	.	16b\JJ
4F\	.	8a/L
.	.	8b/J
=25	=25	=25
2E\	4ee\	8g#/L
.	.	8b/
.	8ee\L	8a/
.	8ee\J	8g#/J
4AA/	4.ee\	2a/
4A\	.	.
.	8cc#\	.
=26	=26	=26
4F\	8dd\L	2r
.	8ee\	.
4D\	8ff\	.
.	8gg\J	.
2C#/	2ee\	8r
.	.	8aa\L
.	.	8ee\
.	.	8aa\J
=27	=27	=27
2D\	2dd\	8ff\L
.	.	16gg\L
.	.	16ff\JJ
.	.	8ee\L
.	.	8dd\J
4AA/	2r	8ee\L
.	.	8ff\J
4BB/	.	[4gg\
=28	=28	=28
2D\	4dd\	4gg\]
.	8dd\L	4ff#\
.	8dd\J	.
2GG/	4.dd\	2gg\
.	8g/	.
=29	=29	=29
4.G\	8b\L	1r
.	8cc\	.
.	8dd\	.
8E\	8ee\J	.
4.A\	4.cc\	.
8G\	8b\	.
=30	=30	=30
4.F\	8a\L	1r
.	8b\	.
.	8cc\	.
8D\	8dd\J	.
2G\	2b\	.
=31	=31	=31
2C/	8r	4gg\
.	8ee\L	.
.	8cc\	8gg\L
.	8ee\J	8gg\J
2G\	8dd\L	4.gg\
.	16ee\L	.
.	16dd\JJ	.
.	8cc\L	.
.	8b\J	8dd\
=32	=32	=32
2C/	8cc\L	8ee\L
.	8dd\	8ff\
.	8ee\	8gg\
.	8cc\J	8aa\J
4.D\	8a\L	4.ff\
.	16b\L	.
.	16cc\JJ	.
.	8dd\L	.
8E\	8cc\J	8ee\
=33	=33	=33
4G\	8b\L	8dd\L
.	8cc\	8ee\
4A\	8a\	8cc\
.	8b\J	8dd\J
2E\	4g#/	2b\
.	[4ee\	.
=34	=34	=34
2F#\	4ee\]	4r
.	8dd\L	2aa\
.	8cc\J	.
4G\	4b\	.
4BB/	[4dd\	8gg\L
.	.	8ff\J
=35	=35	=35
4C/	4dd\]	8ee\L
.	.	8ff\J
4EE/	8cc\L	2gg\
.	8b-\J	.
2FF/	2a/	.
.	.	[4ff\
=36	=36	=36
1GG	4b\	4ff\]
.	2cc\	4ee-\
.	.	2dd\
.	4b\	.
=37	=37	=37
1C	1cc	1cc
=38	=38	=38
2.c\	2r	1r
.	2g/	.
4B\	.	.
=39	=39	=39
2A\	8a\L	4r
.	16b\L	.
.	16cc\JJ	.
.	8b/L	2ee\
.	8a/J	.
2G#\	2b\	.
.	.	8dd\L
.	.	8ee\J
=40	=40	=40
2A\	4cc\	2cc\
.	2aa\	.
2E\	.	4r
.	8gg\L	4g/
.	8aa\J	.
=41	=41	=41
2F\	2.ff\	8a\L
.	.	16b\L
.	.	16cc\JJ
.	.	8b/L
.	.	8a/J
4G\	.	[2b-\
4GG/	8ee\L	.
.	8dd\J	.
=42	=42	=42
1AA	2cc\	4b-\]
.	.	4a/
.	4r	4r
.	4cc\	[4aa\
=43	=43	=43
2BB/	8dd\L	4aa\]
.	16ee\L	.
.	16ff\JJ	.
.	8ee\L	4.gg\
.	8dd\J	.
4C/	4ee\	.
.	.	16aa\LL
.	.	16gg\JJ
4D\	[4ff\	4ff\
=44	=44	=44
1C	4ff\]	1gg
.	8ee\L	.
.	8dd\J	.
.	2ee\	.
=45	=45	=45
*M3/1	*M3/1	*M3/1
0G	0.r	2g/
.	.	2a/
.	.	2b\
.	.	2cc\
1B	.	2dd\
.	.	2b\
=46	=46	=46
0c	2cc\	1.ee
.	2dd\	.
.	2ee\	.
.	2ff\	2dd\
1C	2gg\	2cc\
.	2ee\	2b\
=47	=47	=47
1D	1ff	2a/
.	.	2b\
1E	1ee	1.cc
1G	1dd	.
.	.	2b\
=48	=48	=48
0.C	0ee	0cc
.	1r	1r
=49	=49	=49
0C	2cc\	1.ee
.	2dd\	.
.	2ee\	.
.	2ff\	2dd\
1C	2gg\	2cc\
.	2ee\	2b\
=50	=50	=50
1D	1ff	2a/
.	.	2b\
1E	1ee	1.cc
1G	1dd	.
.	.	2b\
=51	=51	=51
0.C	0ee	0cc
.	1r	1r
=52	=52	=52
1D	1ff	2a/
.	.	2b\
1E	1ee	1.cc
1G	1dd	.
.	.	2b\
=53	=53	=53
0C	0ee	0cc
1r	1r	1r
=54	=54	=54
0G	1.dd	1r
.	.	1.gg
.	2b\	.
1C	1ee	.
.	.	2ee\
=55	=55	=55
1F	2cc\	1aa
.	2a/	.
1D	1dd	2ff\
.	.	2dd\
1E	2b\	1gg
.	2g/	.
=56	=56	=56
1C	1.cc	2ee\
.	.	2cc\
0AA	.	1.ff
.	2a/	.
.	1aa	.
.	.	2ee\
=57	=57	=57
1BB-	2ff\	1.dd
.	2dd\	.
0GG	1.gg	.
.	.	4cc\
.	.	4dd\
.	.	1ee
.	4ff\	.
.	4gg\	.
=58	=58	=58
1AA	2ee\	1.cc
.	2cc\	.
0FF	1.ff	.
.	.	4b\
.	.	4cc\
.	.	1dd
.	4ee\	.
.	4ff\	.
=59	=59	=59
1GG	2dd\	1.b
.	2b\	.
0EE	1.ee	.
.	.	4a/
.	.	4b\
.	.	1cc
.	4dd\	.
.	4ee\	.
=60	=60	=60
1FF	2cc\	1.a
.	2a/	.
1FF	1.dd	.
.	.	4g/
.	.	4a/
1GG	.	1b
.	2dd\	.
=61	=61	=61
*met(C)	*met(C)	*met(C)
*M4/4	*M4/4	*M4/4
1C	1ee	1cc
=62	=62	=62
*clefC4	*	*
4c\	1r	8r
.	.	8ee\
8c\L	.	8gg\L
8c\J	.	16ee\L
.	.	16aa\JJ
2d\	.	8ff\L
.	.	16dd\L
.	.	16ee\JJ
.	.	8ff\L
.	.	8gg\J
=63	=63	=63
2c\	8r	8ee\L
.	8cc\L	8ee\
.	8cc\	8ee\
.	8cc\J	8ee\J
2G/	8.b/L	8.dd\L
.	16a/Jk	16cc\Jk
.	8b\L	8dd\L
.	8cc\J	8ee\J
=64	=64	=64
2A\	8.a/L	8.cc\L
.	16g/Jk	16b\Jk
.	8a/L	8cc\L
.	16b/L	16dd\L
.	16a/JJ	16cc\JJ
2E/	2g#/	2b\
=65	=65	=65
4A\	8r	1r
.	8cc#\	.
4F#/	8dd\L	.
.	16a\L	.
.	16dd\JJ	.
4.G/	8b/L	.
.	16g/L	.
.	16a/JJ	.
.	8b\L	.
8E/	8ccn\J	.
=66	=66	=66
*clefF4	*	*
4F\	8a/	8r
.	8aa\L	8ff\L
4FF/	8aa\	8ff\
.	8aa\J	8ff\J
2C/	8.gg\L	8.ee\L
.	16ff\Jk	16dd\Jk
.	8gg\L	8ee\L
.	8aa\J	8ff\J
=67	=67	=67
2D\	8.ff\L	8.dd\L
.	16ee\Jk	16cc\Jk
.	8ff\L	8dd\L
.	16gg\L	16ee\L
.	16ff\JJ	16dd\JJ
2AA/	2ee\	2cc#\
=68	=68	=68
2D\	1r	8r
.	.	8dd\
.	.	8ff\L
.	.	16dd\L
.	.	16gg\JJ
4.C/	.	8ee\L
.	.	16cc\L
.	.	16dd\JJ
.	.	8ee\L
8AA/	.	8ff\J
=69	=69	=69
4.BB-/	8r	2dd\
.	16dd\LL	.
.	16ee\JJ	.
.	8ff\L	.
8GG/	8gg\J	.
4.AA/	4ee\	8r
.	.	8cc\L
.	4a/	8cc\
8FF/	.	8cc\J
=70	=70	=70
2GG/	8r	8.b/L
.	8gg\L	.
.	.	16a/Jk
.	8gg\	8b\L
.	8gg\J	8cc\J
2D\	8.ff\L	2a/
.	16ee\Jk	.
.	8ff\L	.
.	8gg\J	.
=71	=71	=71
2C/	8ee\L	8r
.	8ee\	8g/
.	8ee\	8cc\L
.	8ee\J	16a\L
.	.	16cc\JJ
4G\	2dd\	8b/L
.	.	16g/L
.	.	16a/JJ
8G\L	.	8b\L
8G\J	.	8cc\J
=72	=72	=72
4F\	8r	4.a/
.	8cc\	.
4FF/	8ff\L	.
.	16dd\L	8b\
.	16ff\JJ	.
4.C/	8ee\L	2cc\
.	16cc\L	.
.	16dd\JJ	.
.	8ee\L	.
8AA/	8ff\J	.
=73	=73	=73
4BB-/	8dd\L	2r
.	16ee\L	.
.	16ff\JJ	.
4GG/	8ee\L	.
.	8dd\J	.
2AA/	2cc#\	8r
.	.	8ee\L
.	.	8ee\
.	.	8ee\J
=74	=74	=74
8BB-/L	8r	8dd\L
8FF/	8aa\L	8a\J
8FF/	8aa\	8cc\L
8FF/J	8aa\J	16a\L
.	.	16dd\JJ
4GG/	8gg\L	8b\L
.	16dd\L	16b\L
.	16ee\JJ	16cc\JJ
4D\	8ff\L	8dd\L
.	8gg\J	8b\J
=75	=75	=75
2C/	8ee\L	8cc\L
.	8ee\	8ee\J
.	8ee\	8gg\L
.	8ee\J	16ee\L
.	.	16aa\JJ
4D\	8dd\L	4ff\
.	16a\L	.
.	16b\JJ	.
4E\	8cc\L	4ee\
.	8dd\J	.
=76	=76	=76
4G\	4b\	1dd
4F#\	2cc\	.
2G\	.	.
.	4b\	.
=77	=77	=77
0C	0cc	0ee
==	==	==
*-	*-	*-
!!!ENC: Craig Stuart Sapp
!!!END: 2004/12/14/
